X:1
T: Gordon Castle
C:William Marshall
R:Strathspey
Q: 128
K:C
M:4/4
L:1/16
|:EG3 G3c A3G cG3|EG3 G3A c2e2 d4|E3G Gc3 A3G Ac3|d2e2 f2a2 g2e2 d4|
EG3 G3c A3G cG3|EG3 G3A c2e2 d4|E3G Gc3 A3G Ac3|d2e2 f2a2 g2e2 d4|
c3d e2f2 g2c2 g2e2|c3d e2f2 agfe d4|c3d ef3 gc3 g3e|f3g ag3 agfe d4|
c3d e2f2 g2c2 g2e2|c3d e2f2 agfe d4|c3d ef3 gc3 g3e|f2a2 g2c'2 e2f2 d4:|
